X:1000
T:Dawn, The
M:4/4
L:1/8
R:reel
D:Brendan Mulvihill and Donna Long: The Steeplechase
K:A
A,2CE D2FD|E2GB ABcA|B~E3 c~E3|BdcB AFEC|
!A,2CE D2FD|E2GB ABcA|defg agaf|1ecBc AFEC:|2ecBc A2ce|
!|:a2ga fece|faba geef|gebe gebe|ac'ea c'eac'|
!abae fece|defg agaf|acae fedc|1BEGB A2ce:|2BEGB AFEC||
